packages/web-icons/svgs/trash_1.svg

<svg viewBox="0 0 42 48" xmlns="http://www.w3.org/2000/svg" class="ridi_icon"><path d="M3.2 15h35.6v30c0 1.7-1.3 3-3 3H6.2c-1.6 0-3-1.3-3-3V15zm38.6-6c0-1.7-1.3-3-3-3h-8.9V3c0-1.7-1.3-3-3-3H15.1c-1.6 0-3 1.3-3 3v3H3.2c-1.6 0-3 1.3-3 3v3h41.6V9z"/></svg>

<?xml version="1.0" encoding="UTF-8"?>
<svg width="42px" height="48px" viewBox="0 0 42 48" version="1.1" xmlns="http://www.w3.org/2000/svg">
  <!-- Generator: Sketch 41.2 (35397) - http://www.bohemiancoding.com/sketch -->
  <title>trash_1</title>
  <desc>Created with Sketch.</desc>
  <defs></defs>
  <g id="Page-1" stroke="none" stroke-width="1" fill="none" fill-rule="evenodd">
    <g id="trash_1" fill="#444444">
      <g id="레이어_1">
        <path d="M3.2,15 L38.8,15 L38.8,45 C38.8,46.7 37.5,48 35.8,48 L6.2,48 C4.6,48 3.2,46.7 3.2,45 L3.2,15 Z M41.8,9 C41.8,7.3 40.5,6 38.8,6 L29.9,6 L29.9,3 C29.9,1.3 28.6,0 26.9,0 L15.1,0 C13.5,0 12.1,1.3 12.1,3 L12.1,6 L3.2,6 C1.6,6 0.2,7.3 0.2,9 L0.2,12 L41.8,12 L41.8,9 L41.8,9 Z" id="Shape"></path>
      </g>
    </g>
  </g>
</svg>
